assets/icons/table-select.svg

<svg width="25" height="24" viewBox="0 0 25 24" fill="none" xmlns="http://www.w3.org/2000/svg">
<path d="M1.5 6C1.5 3.79086 3.29086 2 5.5 2H19.5C21.7091 2 23.5 3.79086 23.5 6V14C23.5 16.2091 21.7091 18 19.5 18H5.5C3.29086 18 1.5 16.2091 1.5 14V6Z" fill="url(#paint0_linear_3055_14456)"/>
<path d="M4.5 20.75C4.5 20.3358 4.83579 20 5.25 20H19.75C20.1642 20 20.5 20.3358 20.5 20.75C20.5 21.1642 20.1642 21.5 19.75 21.5H5.25C4.83579 21.5 4.5 21.1642 4.5 20.75Z" fill="url(#paint1_linear_3055_14456)"/>
<path d="M6 13L9.5 8.5L13 13L18.5 7" stroke="url(#paint2_linear_3055_14456)" stroke-width="1.5" stroke-linecap="round" stroke-linejoin="round"/>
<defs>
<linearGradient id="paint0_linear_3055_14456" x1="3" y1="4.5" x2="13.1379" y2="16.6421" gradientUnits="userSpaceOnUse">
<stop stop-color="#1A6BEB"/>
<stop offset="1" stop-color="#6EA6FF"/>
</linearGradient>
<linearGradient id="paint1_linear_3055_14456" x1="3.5" y1="17.5" x2="3.37689" y2="20.3458" gradientUnits="userSpaceOnUse">
<stop stop-color="#1A6BEB"/>
<stop offset="1" stop-color="#6EA6FF"/>
</linearGradient>
<linearGradient id="paint2_linear_3055_14456" x1="10.2969" y1="1" x2="21.9936" y2="1.50767" gradientUnits="userSpaceOnUse">
<stop stop-color="white"/>
<stop offset="1" stop-color="white" stop-opacity="0.5"/>
</linearGradient>
</defs>
</svg>

<svg xmlns="http://www.w3.org/2000/svg" width="25" height="24" fill="none" data-c="1"><path fill="url(#a)" d="M1.5 6a4 4 0 0 1 4-4h14a4 4 0 0 1 4 4v8a4 4 0 0 1-4 4h-14a4 4 0 0 1-4-4z"/><path fill="url(#b)" d="M4.5 20.75a.75.75 0 0 1 .75-.75h14.5a.75.75 0 0 1 0 1.5H5.25a.75.75 0 0 1-.75-.75"/><path stroke="url(#c)" stroke-linecap="round" stroke-linejoin="round" stroke-width="1.5" d="m6 13 3.5-4.5L13 13l5.5-6"/><defs><linearGradient id="a" x1="3" x2="13.138" y1="4.5" y2="16.642" gradientUnits="userSpaceOnUse"><stop stop-color="#1A6BEB"/><stop offset="1" stop-color="#6EA6FF"/></linearGradient><linearGradient id="b" x1="3.5" x2="3.377" y1="17.5" y2="20.346" gradientUnits="userSpaceOnUse"><stop stop-color="#1A6BEB"/><stop offset="1" stop-color="#6EA6FF"/></linearGradient><linearGradient id="c" x1="10.297" x2="21.994" y1="1" y2="1.508" gradientUnits="userSpaceOnUse"><stop stop-color="#fff"/><stop offset="1" stop-color="#fff" stop-opacity=".5"/></linearGradient></defs></svg>
